X: 2124
T: Önüme Bir Cebel Düştü
C: ?
O: Turkey
F: http://compmusic.upf.edu/node/140
N: hicaziussak--nefes--bektasiraksi--onume_bir--pir_sultan_abdal
N: makam= hicaziussak
N: form= nefes
N: usul= bektasiraksi = 16/8
M: 16/8
L: 1/16
K: C _7/8B ^c  
Q: 1/4=144
%%MIDI tuningsystem comma53
d2 c2 B2 A2 B2 c4 B2  | B2 G4 d6 d2 z2  | \
w:  Ö *  nü me  *  bir  ce  |  *  bel  düş tü    | 
d2 c2 B2 A2 B2 c4 B2  | B2 G4 A6 A2 z2  | 
w:  Bir_ *  u cu  *  şe hir_  |  *  i çin de    | 
d2 c2 B2 A2 B2 c4 B2  | B2 G4 d6 d2 z2  | \
w:  Be *  nim  şâ *  hım  dük  |  *  kân _ aç mış    | 
d2 c2 B2 A2 B2 c4 B2  | B2 G4 A6 A2 z2  | 
w:  Ne  *  a rar *  san  var_  |  *  i çin de    | 
A4 e2 e4 e4 d2  | d2 d4 =c6 _1/4B2 z2  | \
w:  Dük kâ na  var  pa  |  *  zar_ ey le    | 
=c2 _2/4B4 A4 c4 B2  | _2/4B2 G4 A6 A2 z2  | \
w:  Ra ki bin den  ha  |  *  zar_ ey le    | 
=c4 _2/4B2 A4 c4 B2  | 
w:  Ay la  gü ne  na  | 
_2/4B2 G4 =c6 _1/4B2 z2  | =c2 _2/4B4 A4 c4 B2  | \
w:  *  zar_ ey le    |  Mu ham med_ A li   | 
_2/4B2 G4 A6 A2 z2  | =c4 _2/4B2 A4 c4 B2  | \
w:  *  i çin de    |  Ay la  gü ne  na  | 
_2/4B2 G4 =c6 _1/4B2 z2  | 
w:  *  zar_ ey le    | 
=c2 _2/4B4 A4 c4 B2  | _2/4B2 G4 A6 A2 z2  | \
w:  Mu ham med_ A li   |  *  i çin de    | 
d2 c2 B2 A2 B2 c4 B2  | B2 G4 d6 d2 z2  | 
w:  Ö *  nü me  *  bir  ce  |  *  bel  düş tü    | 
d2 c2 B2 A2 B2 c4 B2  | B2 G4 A6 A2 z2  | \
w:  Bir_ *  u cu  *  şe hir_  |  *  i çin de    | 
d2 c2 B2 A2 B2 c4 B2  | B2 G4 d6 d2 z2  | 
w:  Be *  nim  şâ *  hım  dük  |  *  kân _ aç mış    | 
d2 c2 B2 A2 B2 c4 B2  | B2 G4 A6 A2 z2  | \
w:  Ne  *  a rar *  san  var_  |  *  i çin de    | 
A4 e2 e4 e4 d2  | d2 d4 =c6 _1/4B2 z2  | 
w:  Dük kâ na  var  pa  |  *  zar_ ey le    | 
=c2 _2/4B4 A4 c4 B2  | _2/4B2 G4 A6 A2 z2  | \
w:  Ra ki bin den  ha  |  *  zar_ ey le    | 
=c4 _2/4B2 A4 c4 B2  | _2/4B2 G4 =c6 _1/4B2 z2  | \
w:  Ay la  gü ne  na  |  *  zar_ ey le    | 
=c2 _2/4B4 A4 c4 B2  | 
w:  Mu ham med_ A li   | 
_2/4B2 G4 A6 A2 z2  | =c4 _2/4B2 A4 c4 B2  | \
w:  *  i çin de    |  Ay la  gü ne  na  | 
_2/4B2 G4 =c6 _1/4B2 z2  | =c2 _2/4B4 A4 c4 B2  | \
w:  *  zar_ ey le    |  Mu ham med_ A li   | 
_2/4B2 G4 A6 A2 z2  | 
w:  *  i çin de    | 
|


